wp-content/themes/sayenko-erickson/public/images/about/best-seller.svg

<?xml version="1.0" encoding="UTF-8"?>
<svg width="46px" height="55px" viewBox="0 0 46 55" version="1.1" xmlns="http://www.w3.org/2000/svg" xmlns:xlink="http://www.w3.org/1999/xlink">
    <!-- Generator: Sketch 63.1 (92452) - https://sketch.com -->
    <title>best-seller</title>
    <desc>Created with Sketch.</desc>
    <g id="Mockups" stroke="none" stroke-width="1" fill="none" fill-rule="evenodd">
        <g id="About" transform="translate(-697.000000, -2827.000000)" fill="#E9731F" fill-rule="nonzero">
            <g id="best-seller" transform="translate(697.000000, 2827.000000)">
                <path d="M18.7865531,8.78032366 C11.0476172,11.003424 6.57624465,19.0792761 8.79934497,26.8180981 C8.91187817,27.2083195 9.26895469,27.4768989 9.67500821,27.4768989 C9.76009152,27.4771236 9.84483312,27.4651641 9.92649943,27.441359 C10.410005,27.3024009 10.6895156,26.7978239 10.5506715,26.3142045 C9.89312672,24.0249283 9.88959582,21.5973774 10.5405344,19.3062788 C12.4659001,12.5290007 19.5207525,8.59591956 26.2979168,10.5212853 C33.0750811,12.446651 37.0082761,19.5015034 35.0829104,26.2786677 C34.9453192,26.7627427 35.2261966,27.2668641 35.7102716,27.4044554 C36.1943466,27.5420466 36.698468,27.2611691 36.8360593,26.7770941 C37.5800541,24.158533 37.5759537,21.3839288 36.8243276,18.7675318 C34.6012272,11.0285959 26.5253751,6.55722335 18.7865531,8.78032366 Z" id="Path"></path>
                <path d="M31.8326598,30.5111919 C31.4766084,30.1551405 30.8993631,30.1551405 30.5433117,30.5111919 C30.1872603,30.8672433 30.1872603,31.4444886 30.5433117,31.80054 L31.8317486,33.0880657 C32.0025986,33.2589157 32.2342712,33.3550473 32.475967,33.3550473 L32.475967,33.3559585 C32.7175489,33.3559585 32.9492215,33.2599408 33.1199577,33.0892047 C33.4758952,32.733381 33.4758952,32.1564775 33.1201855,31.80054 L31.8326598,30.5111919 Z" id="Path"></path>
                <path d="M35.1029568,28.8245606 L33.5256695,27.9133606 C33.09228,27.6669949 32.5414595,27.8146093 32.2893988,28.2445818 C32.0348323,28.6786547 32.1803965,29.2369925 32.6144694,29.4915591 L34.1917567,30.4027591 C34.3301452,30.4830586 34.4873272,30.5252016 34.6473567,30.524862 C34.972883,30.524862 35.2736929,30.3511624 35.436456,30.0692599 C35.6880611,29.6334785 35.5387382,29.0761657 35.1029568,28.8245606 Z" id="Path"></path>
                <path d="M15.0802469,30.5111919 C14.7241955,30.1551405 14.1469502,30.1551405 13.7908988,30.5111919 L12.5033732,31.7996288 C12.3326371,31.9704788 12.2366193,32.2021514 12.2366193,32.4436194 C12.2365054,32.9468296 12.6443814,33.3549334 13.1475916,33.3550473 C13.3889457,33.3547056 13.6202766,33.2586879 13.7908988,33.0880657 L15.0802469,31.80054 C15.4362983,31.4444886 15.4362983,30.8672433 15.0802469,30.5111919 Z" id="Path"></path>
                <path d="M13.0196819,29.4854085 C13.4537548,29.2308419 13.599319,28.672618 13.3447525,28.2384312 C13.090186,27.8042444 12.5319621,27.6587941 12.0977752,27.9133606 L10.520488,28.8245606 C10.2385854,28.9873237 10.0648879,29.2881337 10.0648879,29.6136599 C10.0648879,30.1168701 10.4727639,30.524862 10.976088,30.524862 L10.976088,30.524862 C11.1361175,30.5252016 11.2932995,30.4830586 11.431688,30.4027591 L13.0089753,29.4915591 C13.0126201,29.4895089 13.016151,29.4874587 13.0196819,29.4854085 Z" id="Path"></path>
                <path d="M45.3566909,22.1691555 L45.3566909,22.1691555 L41.4075499,17.7953952 L42.6440484,12.0338773 C42.742458,11.576341 42.478096,11.1185769 42.0326331,10.9750629 L36.4223744,9.16906439 L34.6172871,3.55880569 C34.4737731,3.11334276 34.016009,2.84898085 33.5584727,2.94739046 L27.7960436,4.18388892 L23.4222833,0.234747912 C23.0754578,-0.0782493041 22.5481008,-0.0782493041 22.2012753,0.234747912 L17.827515,4.18388892 L12.0659971,2.94739046 C11.6084608,2.84898085 11.1506967,3.11334276 11.0071827,3.55880569 L9.20118419,9.16815319 L3.59092549,10.9741517 C3.14546257,11.1176657 2.88110065,11.5754298 2.97951026,12.0329661 L4.21600872,17.7953952 L0.266867714,22.1691555 C-0.0461295024,22.515981 -0.0461295024,23.043338 0.266867714,23.3901635 L4.21600872,27.7639238 L2.97951026,33.5254417 C2.88110065,33.982978 3.14546257,34.4407421 3.59092549,34.5842561 L7.83438411,35.9510562 C7.73107681,36.0252051 7.6445128,36.1201977 7.5801593,36.2298834 L0.709710938,48.1292448 C0.457878024,48.5649124 0.606859232,49.122339 1.04252676,49.3741719 C1.25233057,49.4954754 1.50177158,49.5281647 1.73572219,49.4650641 L8.31732014,47.697336 L10.0859594,54.288046 C10.1812937,54.6443252 10.4819898,54.9080037 10.8477227,54.9559556 C10.8870182,54.9606255 10.9265415,54.9632452 10.9661787,54.9632452 C11.2917049,54.9632452 11.5925148,54.7895477 11.7552779,54.5076452 L18.5983903,42.6529326 C18.6788037,42.5039514 18.7154795,42.3352654 18.7040895,42.1663517 L22.2012753,45.3245711 C22.5481008,45.6375683 23.0754578,45.6375683 23.4222833,45.3245711 L26.9194691,42.1663517 C26.9080791,42.3352654 26.9447549,42.5039514 27.0251683,42.6529326 L33.8682807,54.5076452 C34.0310438,54.7895477 34.3318537,54.9632452 34.6573799,54.9632452 C34.6970171,54.9632452 34.7365404,54.9606255 34.7758359,54.9559556 C35.1415689,54.9080037 35.4422649,54.6443252 35.5375992,54.288046 L37.3062385,47.697336 L43.8878364,49.4650641 C44.3737338,49.5960491 44.8737549,49.3083377 45.0047399,48.8224403 C45.0678405,48.5884897 45.0350373,48.3390487 44.9138477,48.1292448 L38.0433993,36.2289722 C37.9792736,36.1194004 37.8930513,36.0244078 37.7900857,35.950145 L42.0326331,34.5833449 C42.478096,34.4398309 42.742458,33.9820668 42.6440484,33.5245305 L41.4075499,27.7639238 L45.3566909,23.3901635 C45.6696881,23.043338 45.6696881,22.515981 45.3566909,22.1691555 Z M17.0201918,41.7417325 L11.2778091,51.692037 L9.84266902,46.344204 C9.71248131,45.8580787 9.21291589,45.5694561 8.72679066,45.6996438 C8.72633506,45.6997577 8.72587946,45.6998716 8.72553776,45.6999855 L3.39046148,47.1342144 L9.15926899,37.1401723 C9.25471719,36.9660192 9.28968449,36.7649856 9.25858979,36.5688498 L11.0062715,42.0005133 C11.1497855,42.4459762 11.6075496,42.7103382 12.0650859,42.6119286 L17.2297678,41.5039093 C17.1460513,41.5698574 17.0749777,41.6503847 17.0201918,41.7417325 Z M42.2349195,47.1360368 L36.8989321,45.6999855 C36.4130346,45.5691144 35.9130136,45.8569397 35.7821425,46.3429511 C35.7820286,46.3434067 35.7819147,46.3438623 35.7818008,46.344204 L34.3466607,51.692037 L28.6061004,41.7417325 C28.5512006,41.6503847 28.4802409,41.5698574 28.3965244,41.5039093 L33.5602951,42.6119286 C34.0178314,42.7103382 34.4755955,42.4459762 34.6191095,42.0005133 L36.3677024,36.5670274 C36.3361521,36.7638466 36.3711194,36.9654497 36.4670232,37.1401723 L42.2349195,47.1360368 Z M39.7427874,26.8891717 C39.5467655,27.1066068 39.4671494,27.404911 39.5286554,27.6910278 L40.6886131,33.1026449 L35.418232,34.7983881 C35.1386075,34.8882552 34.9194638,35.1073989 34.8295967,35.3870234 L33.1338535,40.6564933 L27.7231476,39.4965356 C27.4369169,39.433435 27.1379293,39.5132789 26.9212915,39.7106676 L22.8117793,43.420163 L18.7022671,39.7106676 C18.5348341,39.5594084 18.317399,39.4756919 18.0917631,39.475578 C18.0274096,39.4754641 17.96317,39.482412 17.900411,39.4965356 L12.488794,40.6564933 L10.7930507,35.3861122 C10.7031836,35.1064877 10.48404,34.887344 10.2044154,34.7974769 L4.93494556,33.1017337 L6.09490322,27.6910278 C6.15640923,27.404911 6.07679312,27.1066068 5.88077121,26.8891717 L2.17127581,22.7796595 L5.88077121,18.6701473 C6.07679312,18.4527122 6.15640923,18.1544081 6.09490322,17.8682912 L4.93494556,12.4566742 L10.2053266,10.7609309 C10.4849512,10.6710638 10.7040948,10.4519202 10.7939619,10.1722956 L12.4897052,4.90282576 L17.900411,6.06278342 C18.1866418,6.12668132 18.485971,6.04672352 18.7022671,5.84865141 L22.8117793,2.13915601 L26.9212915,5.84865141 C27.1373598,6.04706522 27.4369169,6.12702302 27.7231476,6.06278342 L33.1347647,4.90282576 L34.8305079,10.1732068 C34.920375,10.4528314 35.1395187,10.671975 35.4191432,10.7618421 L40.6886131,12.4575854 L39.5286554,17.8682912 C39.4671494,18.1544081 39.5467655,18.4528261 39.7427874,18.6701473 L43.4522828,22.7796595 L39.7427874,26.8891717 Z" id="Shape"></path>
                <path d="M27.2292771,35.7478586 L26.7572755,33.9874201 C26.6248098,33.5018644 26.1239915,33.2156337 25.6384358,33.3480994 C25.1561831,33.4796539 24.8699524,33.975005 24.996837,34.4585105 L25.4688386,36.2198602 C25.575563,36.6178268 25.9360565,36.8947178 26.3481467,36.8950737 C26.4281045,36.8955151 26.5078345,36.8850363 26.5850587,36.8640787 C27.0711839,36.733777 27.3595787,36.2342116 27.2292771,35.7480864 C27.2292771,35.7479725 27.2292771,35.7479725 27.2292771,35.7478586 Z" id="Path"></path>
                <path d="M29.5236789,32.5832608 C29.2750352,32.1457709 28.7187475,31.9926893 28.2812576,32.241333 C27.8437677,32.4899767 27.6906861,33.0462644 27.9393298,33.4837543 C27.94138,33.4872852 27.9434302,33.4908161 27.9454804,33.494347 L28.8566804,35.0716343 C29.1112469,35.5057072 29.6694709,35.6512714 30.1036577,35.3967049 C30.5336302,35.1445303 30.6812446,34.5937098 30.4348789,34.1604342 L29.5236789,32.5832608 Z" id="Path"></path>
                <path d="M19.9870592,33.3413793 C19.5010478,33.2109638 19.0012546,33.4993586 18.870953,33.9853699 C18.870953,33.9854838 18.870953,33.9854838 18.870953,33.9855977 L18.3989514,35.7460362 C18.2685359,36.2320475 18.5569307,36.7318407 19.042942,36.8621424 C19.0430559,36.8621424 19.0430559,36.8621424 19.0431698,36.8621424 C19.120394,36.8831 19.200124,36.8935788 19.2800818,36.8931374 C19.692172,36.8927815 20.0526656,36.6158905 20.1593899,36.2179239 L20.6313915,34.4565742 C20.7610097,33.9709046 20.4727288,33.4716809 19.9870592,33.3413793 Z" id="Path"></path>
                <path d="M17.344579,32.2497616 C16.9087976,31.9981565 16.3514849,32.1474794 16.0998798,32.5832608 L15.1886797,34.1605481 C14.9342271,34.5947349 15.0797913,35.1529589 15.5139781,35.4074115 C15.9481649,35.6618641 16.5063889,35.5162999 16.7608415,35.0821131 C16.7628917,35.0786961 16.764828,35.0751652 16.7668782,35.0716343 L17.6780782,33.494347 C17.9296833,33.0586795 17.7803604,32.5013667 17.344579,32.2497616 Z" id="Path"></path>
                <path d="M22.8117793,33.7140601 C22.3085691,33.7140601 21.9005793,34.1220499 21.9005793,34.6252601 L21.9005793,36.4476602 C21.9005793,36.9508705 22.3085691,37.3588603 22.8117793,37.3588603 C23.3149895,37.3588603 23.7229794,36.9508705 23.7229794,36.4476602 L23.7229794,34.6252601 C23.7229794,34.1220499 23.3149895,33.7140601 22.8117793,33.7140601 Z" id="Path"></path>
            </g>
        </g>
    </g>
</svg>

<svg width="46" height="55" viewBox="0 0 46 55" version="1.1" xmlns="http://www.w3.org/2000/svg"><g id="Mockups" stroke="none" stroke-width="1" fill="none" fill-rule="evenodd"><g id="About" transform="translate(-697 -2827)" fill="#E9731F" fill-rule="nonzero"><g id="best-seller" transform="translate(697 2827)"><path d="M18.787 8.78c-7.74 2.223-12.21 10.3-9.988 18.038a.911.911 0 0 0 1.752-.504 12.756 12.756 0 0 1-.01-7.008c1.925-6.777 8.98-10.71 15.757-8.785 6.777 1.926 10.71 8.98 8.785 15.758a.911.911 0 0 0 1.753.498c.744-2.618.74-5.393-.012-8.01-2.223-7.738-10.299-12.21-18.037-9.987zm13.046 21.731a.912.912 0 1 0-1.29 1.29l1.289 1.287c.17.17.402.267.644.267v.001a.91.91 0 0 0 .644-1.555l-1.287-1.29zm3.27-1.686l-1.577-.912a.911.911 0 0 0-.912 1.579l1.578.91a.911.911 0 0 0 .911-1.578zM15.08 30.511a.912.912 0 0 0-1.29 0L12.504 31.8a.911.911 0 0 0 1.288 1.288l1.29-1.287a.912.912 0 0 0 0-1.29zm-2.06-1.026a.911.911 0 0 0-.922-1.572l-1.578.912a.911.911 0 0 0 .456 1.7c.16 0 .317-.042.456-.122l1.577-.911a.896.896 0 0 0 .01-.007z" id="Path"/><path d="M45.357 22.17l-3.95-4.375 1.237-5.761a.911.911 0 0 0-.611-1.059l-5.61-1.806-1.806-5.61a.911.911 0 0 0-1.059-.612l-5.762 1.237-4.374-3.95a.911.911 0 0 0-1.22 0l-4.374 3.95-5.762-1.237a.911.911 0 0 0-1.059.612l-1.806 5.61-5.61 1.805a.911.911 0 0 0-.611 1.059l1.236 5.762-3.95 4.374a.911.911 0 0 0 0 1.221l3.95 4.374-1.236 5.761a.911.911 0 0 0 .61 1.06l4.244 1.366a.91.91 0 0 0-.254.279L.71 48.13a.911.911 0 0 0 1.026 1.335l6.581-1.768 1.769 6.591a.911.911 0 0 0 1.67.22l6.842-11.855a.897.897 0 0 0 .106-.487l3.497 3.159a.911.911 0 0 0 1.221 0l3.497-3.159a.897.897 0 0 0 .106.487l6.843 11.855a.911.911 0 0 0 1.67-.22l1.768-6.59 6.582 1.767a.911.911 0 0 0 1.026-1.336l-6.87-11.9a.911.911 0 0 0-.254-.279l4.243-1.367a.911.911 0 0 0 .611-1.058l-1.236-5.761 3.949-4.374a.911.911 0 0 0 0-1.22zM17.02 41.741l-5.742 9.95-1.435-5.348a.911.911 0 0 0-1.116-.644h-.001L3.39 47.134l5.77-9.994a.897.897 0 0 0 .099-.571L11.006 42a.911.911 0 0 0 1.06.61l5.164-1.107a.877.877 0 0 0-.21.238zm25.215 5.394L36.899 45.7a.911.911 0 0 0-1.117.643v.001l-1.435 5.348-5.74-9.95a.88.88 0 0 0-.21-.238l5.163 1.108A.911.911 0 0 0 34.62 42l1.748-5.434a.896.896 0 0 0 .099.573l5.768 9.996zm-2.492-20.247a.911.911 0 0 0-.214.802l1.16 5.412-5.27 1.695a.911.911 0 0 0-.59.589l-1.695 5.27-5.41-1.16a.902.902 0 0 0-.803.214l-4.11 3.71-4.109-3.71a.911.911 0 0 0-.802-.214l-5.411 1.16-1.696-5.27a.911.911 0 0 0-.589-.59l-5.27-1.695 1.16-5.411a.911.911 0 0 0-.213-.802l-3.71-4.11 3.71-4.109a.911.911 0 0 0 .214-.802l-1.16-5.411 5.27-1.696a.911.911 0 0 0 .589-.589l1.696-5.27 5.41 1.16a.898.898 0 0 0 .802-.213l4.11-3.71 4.11 3.71a.896.896 0 0 0 .801.214l5.412-1.16 1.696 5.27c.09.28.309.499.588.589l5.27 1.696-1.16 5.41a.911.911 0 0 0 .214.802l3.71 4.11-3.71 4.11z" id="Shape"/><path d="M27.23 35.748l-.473-1.76a.911.911 0 0 0-1.76.47l.472 1.762a.911.911 0 0 0 1.76-.472zm2.294-3.165a.911.911 0 1 0-1.579.911l.912 1.578a.911.911 0 0 0 1.578-.912l-.911-1.577zm-9.537.758a.911.911 0 0 0-1.116.644l-.472 1.761a.911.911 0 0 0 .644 1.116.911.911 0 0 0 1.116-.644l.472-1.761a.911.911 0 0 0-.644-1.116zm-2.642-1.091a.911.911 0 0 0-1.245.333l-.911 1.578a.911.911 0 1 0 1.572.921l.006-.01.911-1.578a.911.911 0 0 0-.333-1.244zm5.467 1.464a.911.911 0 0 0-.911.911v1.823a.911.911 0 0 0 1.822 0v-1.823a.911.911 0 0 0-.911-.91z" id="Path"/></g></g></g></svg>
